package/converter/svg/light/dice-two.svg

<svg xmlns="http://www.w3.org/2000/svg" viewBox="0 0 448 512"><!-- Font Awesome Pro 6.0.0-alpha2 by @fontawesome - https://fontawesome.com License - https://fontawesome.com/license (Commercial License) --><path d="M384 32H64C28.625 32 0 60.625 0 96V416C0 451.375 28.625 480 64 480H384C419.375 480 448 451.375 448 416V96C448 60.625 419.375 32 384 32ZM416 416C416 433.625 401.625 448 384 448H64C46.375 448 32 433.625 32 416V96C32 78.375 46.375 64 64 64H384C401.625 64 416 78.375 416 96V416ZM128 136C114.75 136 104 146.75 104 160S114.75 184 128 184S152 173.25 152 160S141.25 136 128 136ZM320 328C306.75 328 296 338.75 296 352S306.75 376 320 376S344 365.25 344 352S333.25 328 320 328Z "></path></svg>

<svg xmlns="http://www.w3.org/2000/svg" viewBox="0 0 448 512"><!--! Font Awesome Pro 6.6.0 by @fontawesome - https://fontawesome.com License - https://fontawesome.com/license (Commercial License) Copyright 2024 Fonticons, Inc. --><path d="M384 64c17.7 0 32 14.3 32 32l0 320c0 17.7-14.3 32-32 32L64 448c-17.7 0-32-14.3-32-32L32 96c0-17.7 14.3-32 32-32l320 0zM64 32C28.7 32 0 60.7 0 96L0 416c0 35.3 28.7 64 64 64l320 0c35.3 0 64-28.7 64-64l0-320c0-35.3-28.7-64-64-64L64 32zm88 128a24 24 0 1 0 -48 0 24 24 0 1 0 48 0zM320 376a24 24 0 1 0 0-48 24 24 0 1 0 0 48z"/></svg>
